X: 2
T: Tatter Jack Walsh
R: jig
M: 6/8
L: 1/8
K: Ddor
e|fAd ded|^cAB ^c3|d^cA GFG|A2d efg|fAd ded|^cAB ^c3|d^cA GFG|Add d2:||:A|dfa afa|dfa afa|gef g2a|gef g3|af/e/d ded|^cAB ^c3|d^cA GFG|Add d2:|


Tune 1638	Setting 15066

